X: 1
T: String Quartet in G Major opus 77 no 1 mvt 4
C: Franz Joseph Haydn
%%abc-version 2.0
%%abcx-abcm2ps-target-version 5.9.1 (29 Sep 2008)
%%abc-creator hum2abc beta
%%abcx-conversion-date 2021/02/14 14:38:20
%%abc-copyright Copyright (c) 1994, 2000 Center for Computer Assisted Research in the Humanities
%%abc-edited-by Frances Bennion
%%abcx-initial-encoding-date 1997/04/15
%%gracespace 0 6 6
%%humdrum-veritas 4141328650
%%humdrum-veritas-data 3143028233
%%linebreak <none>
%%barnumbers 0
L: 1/8
M: 2/4
N: Derived from op77n1-04.krn
Q: "Finale: Presto"
%%staves [1 2 3 4]
V: 1
V: 2
V: 3 clef=alto
V: 4 clef=bass
K: G
[V:1]z3 d [I:setbarnb1]|
[V:2]z3 d |
[V:3]z3 D |
[V:4]z3 D |
[V:1]^cd AB |
[V:2]^cd AB |
[V:3]^CD A,B, |
[V:4]^CD A,B, |
[V:1]E3 F/G/ |
[V:2]E3 F/G/ |
[V:3]E,3 F,/G,/ |
[V:4]E,3 F,/G,/ |
[V:1]AD EF |
[V:2]AD EF |
[V:3]A,D, E,F, |
[V:4]A,D, E,F, |
[V:1]G/F/G/A/ Bd |
[V:2]G/F/G/A/ Bd |
[V:3]G,/F,/G,/A,/ B,D |
[V:4]G,/F,/G,/A,/ B,D |
[V:1]^cd AB |
[V:2]^cd AB |
[V:3]^CD A,B, |
[V:4]^CD A,B, |
[V:1]E3 F/G/ |
[V:2]E3 F/G/ |
[V:3]E,3 F,/G,/ |
[V:4]E,3 F,/G,/ |
[V:1]AD EF |
[V:2]AD EF |
[V:3]A,D, E,F, |
[V:4]A,D, E,F, |
[V:1]G2 G,d |
[V:2]G2 G,z |
[V:3]G,2 Gz |
[V:4]G,2 G,,z |
[V:1]^cd AB |
[V:2]z4 |
[V:3]z4 |
[V:4]z4 |
[V:1]E3 F/G/ |
[V:2]C4- |
[V:3]A,4- |
[V:4]D,4- |
[V:1]AD EF |
[V:2]C4 |
[V:3]A,4 |
[V:4]D,4 |
[V:1]G/F/G/A/ Bd |
[V:2]B,2 z2 |
[V:3]G,2 z2 |
[V:4]G,,2 z2 |
[V:1]^cd AB |
[V:2]z4 |
[V:3]z4 |
[V:4]z4 |
[V:1]E3 F/G/ |
[V:2]C4- |
[V:3]A,4- |
[V:4]D,4- |
[V:1]AD EF |
[V:2]C4 |
[V:3]A,4 |
[V:4]D,4 |
[V:1]G/F/G/A/ GB |
[V:2]B,2 z2 |
[V:3]G,2 z2 |
[V:4]G,2 z2 |
[V:1]G/F/G/A/ Gd |
[V:2]D2 z2 |
[V:3]B,2 z2 |
[V:4]G,2 z2 |
[V:1]B/A/B/c/ Bg |
[V:2]G2 zB, |
[V:3]D2 zd |
[V:4]G,2 zG,, |
[V:1]d/^c/d/e/ db |
[V:2]B2 zD |
[V:3]G,2 zd |
[V:4]B,2 zG,, |
[V:1]g/f/g/a/ gd' |
[V:2]d2 z2 |
[V:3]G,2 z2 |
[V:4]B,2 z2 |
[V:1]^c'd' ab |
[V:2]z4 |
[V:3]z4 |
[V:4]z4 |
[V:1]e3 f/g/ |
[V:2]G4 |
[V:3]E4 |
[V:4]^C4 |
[V:1]ad ef |
[V:2]F2 GA |
[V:3]D4- |
[V:4]C4 |
[V:1]g/f/g/a/ bd' |
[V:2]G2 z2 |
[V:3]D2 z2 |
[V:4]B,2 z2 |
[V:1]^c'd' ab |
[V:2]z4 |
[V:3]z4 |
[V:4]z4 |
[V:1]e3 f/g/ |
[V:2]c4 |
[V:3]F4- |
[V:4]z4 |
[V:1]a^d ef |
[V:2]^DA GD |
[V:3]F2 EA |
[V:4]B,4 |
[V:1]g/f/g/a/ be/f/ |
[V:2]E/^D/E/F/ GE/=D/ |
[V:3]G2 zG/F/ |
[V:4]E,4 |
[V:1]g^c de |
[V:2]^CG FC |
[V:3]E2 DG |
[V:4]A,4 |
[V:1]f/e/f/g/ az |
[V:2]D/^C/D/E/ Fz |
[V:3]F2 zF |
[V:4]D,2 zD |
[V:1]z3 d- |
[V:2]zf ^cd |
[V:3]^EF z2 |
[V:4]^CD ^A,B, |
[V:1]dB ^de |
[V:2]^AB FG |
[V:3]z3 G |
[V:4]F,G, zE |
[V:1]z3 e- |
[V:2]zg ^de |
[V:3]FG z2 |
[V:4]^DE B,^C |
[V:1]e^c ^ef |
[V:2]B^c ^GA |
[V:3]z3 F |
[V:4]^G,A, z2 |
[V:1]za ^ef |
[V:2]z3 F- |
[V:3]^EF ^CD |
[V:4]z4 |
[V:1]^cd ^AB |
[V:2]FD FG |
[V:3]^A,B, zG |
[V:4]z4 |
[V:1]zb fg |
[V:2]z3 B |
[V:3]FG ^DE |
[V:4]z4 |
[V:1]^de fg |
[V:2]FG AG |
[V:3]AG ^DE |
[V:4]z4 |
[V:1]^de b=d |
[V:2]FE GB |
[V:3]AG E^G |
[V:4]z4 |
[V:1]^ca ^ga |
[V:2]E4 |
[V:3]A^C CC |
[V:4]A,,4- |
[V:1]e=f ^cd |
[V:2][^G,4=F4] |
[V:3]D4 |
[V:4]A,,4- |
[V:1]Aa ^ga |
[V:2][A,4E4] |
[V:3]^C4 |
[V:4]A,,4- |
[V:1]e=f ^cd |
[V:2][^G,4=F4] |
[V:3]D4 |
[V:4]A,,4- |
[V:1]Aa ^ga |
[V:2][A,E]A ^GA |
[V:3]^C2 z2 |
[V:4]A,,2 z2 |
[V:1]e=f ^cd |
[V:2]E=F ^CD |
[V:3]z4 |
[V:4]z4 |
[V:1]^GA E=F |
[V:2]^G,A, E=F |
[V:3]zA E=F |
[V:4]zA, E,=F, |
[V:1]^CD A,_B, |
[V:2]^CD A,_B, |
[V:3]^CD A,_B, |
[V:4]^C,D, A,,_B,, |
[V:1]^G,A, E/=F/E/F/ |
[V:2]^G,A, E/=F/E/F/ |
[V:3]^G,A, E/=F/E/F/ |
[V:4]^G,,A,, E,/=F,/E,/F,/ |
[V:1]^CD A,_B, |
[V:2]^CD A,_B, |
[V:3]^CD A,_B, |
[V:4]^C,D, A,,_B,, |
[V:1]^G,A, B,C |
[V:2]^G,A, B,C |
[V:3]^G,A, B,C |
[V:4]^G,,A,, B,,C, |
[V:1]^A,B, ^CD |
[V:2]^A,B, ^CD |
[V:3]^A,B, ^CD |
[V:4]^A,,B,, ^C,D, |
[V:1]^DE FG |
[V:2]^DE FG |
[V:3]^DE FG |
[V:4]^D,E, F,G, |
[V:1]^GA B^c |
[V:2]^GA BE |
[V:3]^GA DE |
[V:4]^G,A, =G,E, |
[V:1]ed gf |
[V:2]GF BA |
[V:3]A,2 zD |
[V:4]D,2 z2 |
[V:1]ba ba |
[V:2]gf gf |
[V:3]^cd cd |
[V:4]z3 D, |
[V:1]ba d'c' |
[V:2]gf FF |
[V:3]^cd AA |
[V:4]D4- |
[V:1]^ab fg |
[V:2]G4 |
[V:3]B4 |
[V:4]D4- |
[V:1]e3 f/g/ |
[V:2]^c4 |
[V:3]G4 |
[V:4]D4- |
[V:1]ad ef |
[V:2]c2 Bc |
[V:3]F2 GA |
[V:4]D4- |
[V:1]g/f/g/a/ bb |
[V:2]B3 g |
[V:3]G2 z^c |
[V:4]D2 zD,, |
[V:1]ab ag |
[V:2]fg fe |
[V:3]^cc cc |
[V:4]D,,D,, D,,D,, |
[V:1]f/e/f/g/ ab |
[V:2]d/^c/d/e/ fg |
[V:3]d3 ^c |
[V:4]D,,2 zD |
[V:1]ab ag |
[V:2]fg fe |
[V:3]^cc cc |
[V:4]DD DD |
[V:1]f/g/a/f/ d/A/d/f/ |
[V:2]dA2 A- |
[V:3]dF FF |
[V:4]D4 |
[V:1]g/f/g/e/ ^c/A/g/b/ |
[V:2]AA2 A- |
[V:3]E4 |
[V:4]^C4 |
[V:1]a/^g/a/f/ d/A/d/f/ |
[V:2]AA2 A- |
[V:3]F4 |
[V:4]D4 |
[V:1]g/f/g/e/ ^c/A/g/b/ |
[V:2]AA2 A- |
[V:3]E4 |
[V:4]^C4 |
[V:1]a/^g/a/f/ d/A/d/f/ |
[V:2]Ad2 d- |
[V:3]F4- |
[V:4]D4 |
[V:1]a/^g/a/f/ d/B/d/f/ |
[V:2]dd2 d- |
[V:3]F4 |
[V:4]B,4 |
[V:1]g/f/g/d/ B/g/b/a/ |
[V:2]dd2 d |
[V:3]B4 |
[V:4]E,4 |
[V:1]g/f/g/e/ ^c/A/G/A/ |
[V:2]^cc2 c |
[V:3]E4 |
[V:4]A,4 |
[V:1]F/d/F/d/ ^E/d/F/d/ |
[V:2]dd2 d |
[V:3]DF ^EF |
[V:4]B,4 |
[V:1]^E/d/F/d/ E/d/F/d/ |
[V:2]zd2 d |
[V:3]zF ^EF |
[V:4]A,4 |
[V:1]E/d/=F/d/ E/d/F/d/ |
[V:2]zd2 d |
[V:3]z=F EF |
[V:4]G,4 |
[V:1]E/d/=F/d/ E/d/F/d/ |
[V:2]zd2 d |
[V:3]z=F EF |
[V:4]^G,4 |
[V:1]^c/B/c/A/ g/f/g/e/ |
[V:2]^cz ez |
[V:3]Ez ^Cz |
[V:4]A,z A,z |
[V:1]^c'/b/c'/a/ e'/d'/e'/c'/ |
[V:2]Az ^c'2 |
[V:3]Ez Az |
[V:4]G,z G,z |
[V:1]d'/^c'/d'/c'/ d'f' |
[V:2]d'2 d2- |
[V:3]A2 B2 |
[V:4]F,2 z2 |
[V:1]e'/^d'/e'/d'/ e'g' |
[V:2]d2 ^c2 |
[V:3]G2 A2 |
[V:4]z4 |
[V:1]f'g'/e'/ f'g'/e'/ |
[V:2]da2 a- |
[V:3]D^C DC |
[V:4]z4 |
[V:1]f'^c' d'^a |
[V:2]ag fe |
[V:3]DA BF |
[V:4]z4 |
[V:1]bf g^d |
[V:2]dc BA |
[V:3]G^D EF |
[V:4]z4 |
[V:1]eb ge |
[V:2]BG BG |
[V:3]G2 z2 |
[V:4]G,,2 z2 |
[V:1]da fd |
[V:2]FA dF |
[V:3]A2 z2 |
[V:4]A,,2 z2 |
[V:1]^cg ec |
[V:2]EG ^cE |
[V:3]G2 z2 |
[V:4]A,,2 z2 |
[V:1]d2 z2 |
[V:2]F/D/^C/D/ C/D/E/D/ |
[V:3]F4 |
[V:4]D,4 |
[V:1]z4 |
[V:2]F/D/^C/D/ C/D/E/D/ |
[V:3]D,4- |
[V:4]B,,4 |
[V:1]z4 |
[V:2]^C/B,/^A,/B,/ C/D/E/F/ |
[V:3]D,4- |
[V:4]G,,4 |
[V:1]z4 |
[V:2]G/F/E/F/ G/A/B/^c/ |
[V:3]D,2 ^C,G/E/ |
[V:4]E,,2 A,,2 |
[V:1]f/d/^c/d/ c/d/e/d/ |
[V:2]dF AF |
[V:3]D4 |
[V:4]D,,2 z2 |
[V:1]f/d/^c/d/ c/d/e/d/ |
[V:2]D4- |
[V:3]B,4 |
[V:4]z4 |
[V:1]^c/B/^A/B/ c/d/e/f/ |
[V:2]D4- |
[V:3]G,4 |
[V:4]z4 |
[V:1]g/f/e/f/ g/a/b/^c'/ |
[V:2]D2 ^CG/E/ |
[V:3]E,2 A,2- |
[V:4]z4 |
[V:1]d'/^c'/d'/a/ e'e' |
[V:2]Fd ^c/d/e/c/ |
[V:3]A,A G/F/G/G,/ |
[V:4]DD A,A, |
[V:1]f'f' g'/f'/g'/e'/ |
[V:2]dA ^c/d/e/g/ |
[V:3]F,F E/D/^C/C/ |
[V:4]D,D, A,A, |
[V:1]d'/f'/d'/f'/ e'e' |
[V:2]fA ^c/d/e/c/ |
[V:3]DD G/F/G/G,/ |
[V:4]D,D A,,A, |
[V:1]f'f' g'/f'/g'/e'/ |
[V:2]dA ^c/d/e/g/ |
[V:3]F,F E/D/^C/C/ |
[V:4]D,,D, A,,A, |
[V:1]f'f' g'/f'/g'/e'/ |
[V:2]fA ^c/d/e/g/ |
[V:3]DF E/D/^C/C/ |
[V:4]D,,D, A,,A, |
[V:1]d'2 f'2 |
[V:2]f2 [d2F2] |
[V:3]D2 A,2 |
[V:4]D,2 D,,2 |
[V:1]D2 z2 |
[V:2][F2d2] z2 |
[V:3]A,2 z2 |
[V:4]D,,2 z2 |
[V:1]D2 za |
[V:2][d2F2] z2 |
[V:3]A,2 z2 |
[V:4]D,,2 z2 |
[V:1]^ga ef |
[V:2]z4 |
[V:3]z4 |
[V:4]z4 |
[V:1]B3 ^c/d/ |
[V:2]G4- |
[V:3]E4- |
[V:4]A,4- |
[V:1]eA B^c |
[V:2]G4 |
[V:3]E4 |
[V:4]A,4 |
[V:1]d/^c/d/e/ fa |
[V:2]F2 z2 |
[V:3]F2 z2 |
[V:4]D,2 z2 |
[V:1]^ga ef |
[V:2]z4 |
[V:3]z4 |
[V:4]z4 |
[V:1]B3 ^c/d/ |
[V:2]G4- |
[V:3]E4- |
[V:4]A,4- |
[V:1]eA B^c |
[V:2]G4 |
[V:3]E4 |
[V:4]A,4 |
[V:1]d2 Da |
[V:2]F2 zf |
[V:3]F2 z2 |
[V:4]D,2 z2 |
[V:1]^ga ef |
[V:2]^ef ^cd |
[V:3]z4 |
[V:4]z4 |
[V:1]^cd z2 |
[V:2]GF z2 |
[V:3]zD ^CD |
[V:4]zB, ^A,B, |
[V:1]z3 b |
[V:2]z3 g |
[V:3]^A,B, F,G, |
[V:4]F,G, ^D,E, |
[V:1]^ab fg |
[V:2]fg ^de |
[V:3]z4 |
[V:4]z4 |
[V:1]^de z2 |
[V:2]AG z2 |
[V:3]zE ^DE |
[V:4]zC B,C |
[V:1]z3 e' |
[V:2]z4 |
[V:3]B,C ^G,A, |
[V:4]^G,A, D,C, |
[V:1]^d'e' ze' |
[V:2]zc Bc |
[V:3]zA ^GA |
[V:4]z4 |
[V:1]^d'e' ze' |
[V:2]zc Bc |
[V:3]zA ^GA |
[V:4]z4 |
[V:1]^d'e' bc' |
[V:2]z3 e |
[V:3]z3 A |
[V:4]z3 A, |
[V:1]f3 g/a/ |
[V:2]^de de/f/ |
[V:3]c4 |
[V:4]A4 |
[V:1]be fg |
[V:2]ge ^de |
[V:3]B4 |
[V:4]GG FE |
[V:1]a/g/a/b/ ag |
[V:2]f/e/f/g/ fe |
[V:3]B4 |
[V:4]^D3 E |
[V:1]f/e/f/g/ fe |
[V:2]c3 B |
[V:3]c2 z2 |
[V:4]A,3 G, |
[V:1]^d3 e |
[V:2]A/^G/A/B/ A=G |
[V:3]z3 E, |
[V:4]F,/E,/F,/G,/ F,E, |
[V:1]F3 G |
[V:2]c/d/c/B/ cz |
[V:3]E4- |
[V:4]A,,/B,,/A,,/^G,,/ A,,B,, |
[V:1]A/G/A/B/ AG |
[V:2]z4 |
[V:3]E4- |
[V:4]C,3 B,, |
[V:1]F3 ^G |
[V:2]c/d/c/B/ cz |
[V:3]E4- |
[V:4]A,,/B,,/A,,/^G,,/ A,,B,, |
[V:1]A/B/A/^G/ AB |
[V:2]z3 ^G |
[V:3]E4 |
[V:4]C,3 B,, |
[V:1]c/d/c/B/ c^d |
[V:2]A3 c |
[V:3]E3 A, |
[V:4]A,,3 F,, |
[V:1]e^d/e/ fe/f/ |
[V:2]B4- |
[V:3]G,2 B,2 |
[V:4]G,,2 ^D,,2 |
[V:1]g/B/A/B/ c/B/A/B/ |
[V:2]B2 z2 |
[V:3]E,2 z2 |
[V:4]E,,G, ^D,E, |
[V:1]g/c/B/c/ d/c/B/c/ |
[V:2]ze2 c/A/ |
[V:3]zA ^GA |
[V:4]A,,2 z2 |
[V:1]c'/f/e/f/ g/f/e/f/ |
[V:2]Fa2 f/d/ |
[V:3]D2 z2 |
[V:4]zD, ^C,D, |
[V:1]g/B/A/B/ c/B/A/B/ |
[V:2]Bd2 B/G/ |
[V:3]zG FG |
[V:4]G,,2 z2 |
[V:1]b/e/^d/e/ f/e/d/e/ |
[V:2]Eg2 e/c/ |
[V:3]C2 z2 |
[V:4]zC, B,,C, |
[V:1]e/A/^G/A/ B/A/G/A/ |
[V:2]Ac2 A/F/ |
[V:3]zF EF |
[V:4]F,,2 z2 |
[V:1]a/A/^G/A/ G/A/B/A/ |
[V:2]^Df2 ^d/B/ |
[V:3]B,z Fz |
[V:4]zB,, B,B,, |
[V:1]G/e/b/b/ b/b/b/b/ |
[V:2]g2 z2 |
[V:3]B,2 z2 |
[V:4]E,2 z2 |
[V:1]G/e/b/b/ F/^d/a/a/ |
[V:2][bB]z [aB]z |
[V:3]Gz ^Dz |
[V:4]E,,z B,,z |
[V:1]G/B/g/g/ g/g/g/g/ |
[V:2][g2B2] z2 |
[V:3]E2 z2 |
[V:4]E,2 z2 |
[V:1]E/B/g/g/ A/c/f/A/ |
[V:2][Bg]z [fA]z |
[V:3]Ez cz |
[V:4]E,z F,z |
[V:1]G/B/e/e/ e/e/e/e/ |
[V:2][B2e2G2] z2 |
[V:3]B2 z2 |
[V:4]G,2 z2 |
[V:1]^G/B/e/e/ e/e/e/e/ |
[V:2][B2e2] z2 |
[V:3]D2 z2 |
[V:4]^G,2 z2 |
[V:1]A/c/e/e/ e/e/e/e/ |
[V:2][e2c2] z2 |
[V:3]C2 z2 |
[V:4]A,2 z2 |
[V:1]^A/^c/e/f/ g/f/g/e/ |
[V:2]g2 z2 |
[V:3]ez3 |
[V:4]^A,2 z2 |
[V:1]A/^d/f/b/ ^d'/b/f/d/ |
[V:2]f4- |
[V:3]^d4- |
[V:4]B,4 |
[V:1]A/^d/f/b/ ^d'/b/f'/d'/ |
[V:2]f4 |
[V:3]d2 B2- |
[V:4]A,4 |
[V:1]e'e' f'f' |
[V:2]ee ^dd |
[V:3]BB AA |
[V:4]G,G, F,F, |
[V:1]g'2 ^g'2 |
[V:2]e4 |
[V:3]G2 B2 |
[V:4]E,2 D,2 |
[V:1]a'a' b'b' |
[V:2]ee ^gg |
[V:3]EE DD |
[V:4]C,C, B,,B,, |
[V:1]c''2 ^A,2 |
[V:2]a2 ^A,2 |
[V:3]C2 ^A,2 |
[V:4]A,,2 ^A,,2 |
[V:1]B,e/g <be/ |
[V:2]B,2 e2- |
[V:3]B,2 GE |
[V:4]B,,4- |
[V:1]f4 |
[V:2]e2 ^d2 |
[V:3]B,4- |
[V:4]B,,4 |
[V:1]eb ^ab |
[V:2]eg fg |
[V:3]B,2 z2 |
[V:4]E,2 z2 |
[V:1]fg z2 |
[V:2]^de z2 |
[V:3]zG FG |
[V:4]zE ^DE |
[V:1]zg fg |
[V:2]ze ^de |
[V:3]^DE z2 |
[V:4]B,C z2 |
[V:1]^de z2 |
[V:2]AG z2 |
[V:3]zE ^DE |
[V:4]zC B,C |
[V:1]ze =fe |
[V:2]zc dc |
[V:3]B,C z2 |
[V:4]^G,A, z2 |
[V:1]c'a z2 |
[V:2]ec z2 |
[V:3]zC DC |
[V:4]zA, B,A, |
[V:1]ze =fe |
[V:2]zc dc |
[V:3]AC z2 |
[V:4]CA, z2 |
[V:1]c'a z2 |
[V:2]ec z2 |
[V:3]zD ED |
[V:4]zF GF |
[V:1]za ba |
[V:2]zf gf |
[V:3]cA zD- |
[V:4]AF zC |
[V:1]d'a ba |
[V:2]ga gf |
[V:3]DF GD- |
[V:4]B,C B,C |
[V:1]d'c' bg |
[V:2]ga bd |
[V:3]DF GB |
[V:4]B,A, G,z |
[V:1]fg de |
[V:2]cd AB |
[V:3]AB FG |
[V:4]z4 |
[V:1]^de Bc |
[V:2]AB FG |
[V:3]FG DE |
[V:4]z4 |
[V:1]Bc G^G |
[V:2]FG D=F |
[V:3]DE B,D |
[V:4]z3 D, |
[V:1]A^G AB |
[V:2]E=F ED |
[V:3]CB, C^G, |
[V:4]C,D, C,B,, |
[V:1]cd eG |
[V:2]CB, A,E |
[V:3]A,B, C^C |
[V:4]A,,B,, C,^C, |
[V:1]FG Ad |
[V:2]A,2 z2 |
[V:3]D2 zB, |
[V:4]D,4- |
[V:1]^cd E=c |
[V:2]z4 |
[V:3]^A,B, ^G,=A, |
[V:4]D,4- |
[V:1]Bc DB |
[V:2]z4 |
[V:3]^G,A, F,=G, |
[V:4]D,4- |
[V:1]CA B,G |
[V:2]zC B,^C |
[V:3]E,F, G,E, |
[V:4]D,4 |
[V:1]^EF DA |
[V:2]D2 z2 |
[V:3]D,2 z2 |
[V:4]D,,2 z2 |
[V:1]^GA Dc |
[V:2]F2 z2 |
[V:3]C2 z2 |
[V:4]D,,2 z2 |
[V:1]Bc Fe |
[V:2][F2A,2] z2 |
[V:3]C2 z2 |
[V:4]D,,2 z2 |
[V:1]^de Ac |
[V:2][F2A,2] z2 |
[V:3]C2 z2 |
[V:4]D,,2 z2 |
[V:1]Bc De |
[V:2]z4 |
[V:3]z4 |
[V:4]z4 |
[V:1]^de Ac |
[V:2][A,2F2] z2 |
[V:3]C2 z2 |
[V:4]D,,2 z2 |
[V:1]Bc Dc |
[V:2]z4 |
[V:3]z4 |
[V:4]z4 |
[V:1]Bc Dc |
[V:2]z4 |
[V:3]z4 |
[V:4]z4 |
[V:1]Bc Dd |
[V:2]z3 d |
[V:3]z3 D |
[V:4]z3 D, |
[V:1]^cd AB |
[V:2]^cd AB |
[V:3]^CD A,B, |
[V:4]^C,D, A,,B,, |
[V:1]E3 F/G/ |
[V:2]E3 F/G/ |
[V:3]E,3 F,/G,/ |
[V:4]E,,3 F,,/G,,/ |
[V:1]AD EF |
[V:2]AD EF |
[V:3]A,D, E,F, |
[V:4]A,,D,, E,,F,, |
[V:1]G/F/G/A/ Bd |
[V:2]G/F/G/A/ Bz |
[V:3]G,/F,/G,/A,/ B,z |
[V:4]G,,/F,,/G,,/A,,/ B,,z |
[V:1]^cd AB |
[V:2]z4 |
[V:3]z4 |
[V:4]z4 |
[V:1]E3 F/G/ |
[V:2]C4- |
[V:3]A,4- |
[V:4]D,4- |
[V:1]AD EF |
[V:2]C4 |
[V:3]A,4 |
[V:4]D,4 |
[V:1]G/F/G/A/ GB |
[V:2]B,2 z2 |
[V:3]B,2 z2 |
[V:4]G,2 z2 |
[V:1]G/F/G/A/ Gd |
[V:2]D2 z2 |
[V:3]B,2 z2 |
[V:4]G,2 z2 |
[V:1]B/A/B/c/ Bg |
[V:2]G2 zB, |
[V:3]D2 zd |
[V:4]G,2 zG,, |
[V:1]d/^c/d/e/ db |
[V:2]B2 zD |
[V:3]G,2 zd |
[V:4]B,2 zG,, |
[V:1]g/f/g/a/ gd' |
[V:2]d2 z2 |
[V:3]G,2 z2 |
[V:4]B,2 z2 |
[V:1]^c'd' ab |
[V:2]z4 |
[V:3]z4 |
[V:4]z4 |
[V:1]e3 f/g/ |
[V:2]d2 ^c2 |
[V:3]B2 A2- |
[V:4]^G2 =G2 |
[V:1]a2 d3/e//=f// |
[V:2]c2 B3/c//d// |
[V:3]A2 G2- |
[V:4]F2 =F2 |
[V:1]g>c c'c' |
[V:2]e2 g2 |
[V:3]G2 C2 |
[V:4]E2 _E2 |
[V:1]c'2 b2- |
[V:2]f4 |
[V:3]D3/E//F// G2 |
[V:4]D2 G,3/A,//B,// |
[V:1]b2 a2- |
[V:2]e4 |
[V:3]C3/D//E// F2 |
[V:4]C2 F,3/G,//A,// |
[V:1]a2 g2- |
[V:2]d4 |
[V:3]B,3/C//D// E2- |
[V:4]B,2 E,3/F,//G,// |
[V:1]g/f/e/d/ ^c/B/A/G/ |
[V:2]^c4 |
[V:3]E2 E2 |
[V:4]A,4 |
[V:1]FG FG |
[V:2]d2 z2 |
[V:3]D_E DE |
[V:4]D,/C/_E,/C/ D,/C/E,/C/ |
[V:1]Fa/g/ f/e/d/c/ |
[V:2][A4F4] |
[V:3]D4 |
[V:4]D,2 z2 |
[V:1]Bc Bc |
[V:2][B2G2] z2 |
[V:3]G,_A, G,A, |
[V:4]G,,/=F,/_A,,/F,/ G,,/F,/A,,/F,/ |
[V:1]Bd'/c'/ b/a/g/=f/ |
[V:2][=F3B3] d |
[V:3]G,4- |
[V:4]G,,2 z2 |
[V:1]ee'/d'/ c'/b/a/g/ |
[V:2]c2 z2 |
[V:3]G,2 z2 |
[V:4]C,2 z2 |
[V:1]fe/d/ c/B/A/G/ |
[V:2][D2A2] z2 |
[V:3]A,2 z2 |
[V:4]C,2 z2 |
[V:1]F2 zz |
[V:2][A2D2] zz |
[V:3][A,2F,2] zB, |
[V:4]C,2 zG, |
[V:1]z3 G- |
[V:2]zB FG |
[V:3]A,B, z2 |
[V:4]F,G, ^D,E, |
[V:1]GE ^GA |
[V:2]^DE B,C |
[V:3]z3 C |
[V:4]B,,C, zA, |
[V:1]z3 A- |
[V:2]zc ^GA |
[V:3]B,C z2 |
[V:4]^G,A, E,F, |
[V:1]AF ^AB |
[V:2]EF ^CD |
[V:3]z3 B, |
[V:4]^C,D, z2 |
[V:1]zd ^AB |
[V:2]z3 B,- |
[V:3]^A,B, F,G, |
[V:4]z4 |
[V:1]FG ^DE |
[V:2]B,G, B,C |
[V:3]^D,E, zC |
[V:4]z4 |
[V:1]ze Bc |
[V:2]z3 E |
[V:3]B,C ^G,A, |
[V:4]z4 |
[V:1]^GA Bc |
[V:2]B,C DC |
[V:3]DC ^G,A, |
[V:4]z4 |
[V:1]^GA e=G |
[V:2]B,A, CE |
[V:3]DC A,^C |
[V:4]z4 |
[V:1]Fd ^cd |
[V:2]A,2 [F2A,2] |
[V:3]D4 |
[V:4]D,,4- |
[V:1]A_B FG |
[V:2][G4_B,4] |
[V:3]^C4 |
[V:4]D,,4- |
[V:1]Dd' ^c'd' |
[V:2][A,4F4] |
[V:3]D4 |
[V:4]D,,4- |
[V:1]a_b fg |
[V:2][_B,4G4] |
[V:3]^C4 |
[V:4]D,,4- |
[V:1]dd' ^c'd' |
[V:2][A,F]d ^cd |
[V:3]D2 z2 |
[V:4]D,,2 z2 |
[V:1]a_b fg |
[V:2]A_B FG |
[V:3]z4 |
[V:4]z4 |
[V:1]^cd A_B |
[V:2]^CD A_B |
[V:3]zD A,_B, |
[V:4]zD, A,,_B,, |
[V:1]FG D_E |
[V:2]FG D_E |
[V:3]F,G, D,_E, |
[V:4]=F,,/^F,,/G,, D,,_E,, |
[V:1]^CD A/_B/A/B/ |
[V:2]^CD A/_B/A/B/ |
[V:3]^C,D, A,/_B,/A,/B,/ |
[V:4]^C,,D,, A,,/_B,,/A,,/B,,/ |
[V:1]FG D_E |
[V:2]FG D_E |
[V:3]F,G, D,_E, |
[V:4]F,,G,, D,,_E,, |
[V:1]^CD E=F |
[V:2]^CD E=F |
[V:3]^C,D, E,=F, |
[V:4]^C,,D,, E,,=F,, |
[V:1]^DE FG |
[V:2]^DE FG |
[V:3]^D,E, F,G, |
[V:4]^D,,E,, F,,G,, |
[V:1]^GA Bc |
[V:2]^GA Bc |
[V:3]^G,A, B,C |
[V:4]^G,,A,, B,,C, |
[V:1]^cd ef |
[V:2]^cd eA |
[V:3]^CD GA |
[V:4]^C,D, =C,A,, |
[V:1]ag c'b |
[V:2]cB ed |
[V:3]D2 zG, |
[V:4]G,,2 z2 |
[V:1]e'd' e'd' |
[V:2]cB cB |
[V:3]FG FG |
[V:4]z3 G,, |
[V:1]e'd' g'=f' |
[V:2]cB BB |
[V:3]FG DD |
[V:4]G,4- |
[V:1]^d'e' bc' |
[V:2]c4 |
[V:3]E4 |
[V:4]G,4- |
[V:1]a3 b/c'/ |
[V:2]f4 |
[V:3]c4 |
[V:4]G,4- |
[V:1]d'g ab |
[V:2]=f2 ef |
[V:3]B2 cd |
[V:4]G,4- |
[V:1]c'/b/c'/d'/ e'e' |
[V:2]e3 c' |
[V:3]c3 f |
[V:4]G,2 zG,, |
[V:1]d'e' d'c' |
[V:2]bc' ba |
[V:3]ff ff |
[V:4]G,,G,, G,,G,, |
[V:1]b/a/b/c'/ d'e' |
[V:2]g/f/g/a/ bc' |
[V:3]g3 f |
[V:4]G,,2 zG |
[V:1]d'e' d'c' |
[V:2]bc' ba |
[V:3]ff ff |
[V:4]GG GG |
[V:1]b/d'/g'/d'/ g'/d'/b/g/ |
[V:2]gd2 d- |
[V:3]gB BB |
[V:4]G4 |
[V:1]a/d'/a/d'/ c'/d'/c'/d'/ |
[V:2]dd2 d- |
[V:3]c2 A2 |
[V:4]F4 |
[V:1]b/d'/g'/d'/ g'/d'/b/g/ |
[V:2]dd2 d- |
[V:3]B4 |
[V:4]G4 |
[V:1]a/d'/a/d'/ c'/d'/c'/d'/ |
[V:2]dd2 d- |
[V:3]c2 A2 |
[V:4]F4 |
[V:1]b/d'/g'/d'/ g'/d'/b/g/ |
[V:2]dd2 d |
[V:3]B4 |
[V:4]G4 |
[V:1]b/d'/=f'/d'/ f'/d'/f'/d'/ |
[V:2]gg2 g |
[V:3]d4 |
[V:4]B,4 |
[V:1]e'g' e'c' |
[V:2]g2 z2 |
[V:3]c2 z2 |
[V:4]C2 z2 |
[V:1]ae' c'a |
[V:2]e2 z2 |
[V:3]C2 z2 |
[V:4]C2 z2 |
[V:1]gd BG |
[V:2]B2 z2 |
[V:3]D2 z2 |
[V:4]D2 z2 |
[V:1]FD CA, |
[V:2]F2 z2 |
[V:3]A,2 z2 |
[V:4]D,2 z2 |
[V:1]G,2 zd |
[V:2]G2 zB |
[V:3]B,D ED |
[V:4]G,,B, CB, |
[V:1]ed zd |
[V:2]cB zB |
[V:3]zD ED |
[V:4]zB, CB, |
[V:1]ed zd |
[V:2]cB zB |
[V:3]zD ED |
[V:4]zB, CB, |
[V:1]ed ed |
[V:2]cB cB |
[V:3]z4 |
[V:4]z4 |
[V:1]ed ed |
[V:2]cB cB |
[V:3]z4 |
[V:4]z4 |
[V:1]ed ed |
[V:2]cB cB |
[V:3]z3 G |
[V:4]z4 |
[V:1]ed cB |
[V:2]cB AG |
[V:3]FG ^DE |
[V:4]z4 |
[V:1]AG e2 |
[V:2]FE c2 |
[V:3]B,C z2 |
[V:4]z3 F,, |
[V:1]dc BA |
[V:2]BG2 C |
[V:3]zC DD |
[V:4]G,,E, D,F, |
[V:1][GG,]d ed |
[V:2]B,B cB |
[V:3]D2 zD |
[V:4]G,2 zB, |
[V:1]G,g ag |
[V:2]G,B cB |
[V:3]ED G,G |
[V:4]CB, G,,B, |
[V:1]G,b c'b |
[V:2]G,g ag |
[V:3]AG G,B |
[V:4]CB, G,,G |
[V:1]G,d' e'd' |
[V:2]G,b c'b |
[V:3]cB G,d |
[V:4]AG G,,B |
[V:1]zd ed |
[V:2]zB cB |
[V:3]ed zD |
[V:4]cB zB, |
[V:1]z2 ed |
[V:2]z2 cB |
[V:3]ED z2 |
[V:4]CB, z2 |
[V:1]z2 ED |
[V:2]z2 CB, |
[V:3]ED z2 |
[V:4]CB, z2 |
[V:1]z2 ed |
[V:2]z2 cB |
[V:3]E,D, z2 |
[V:4]C,B,, z2 |
[V:1]z2 ed |
[V:2]z2 cB |
[V:3]ED z2 |
[V:4]CB, z2 |
[V:1]ed ed |
[V:2]cB cB |
[V:3]z4 |
[V:4]z4 |
[V:1]ed ed |
[V:2]cB cB |
[V:3]z3 G |
[V:4]z4 |
[V:1]ed cB |
[V:2]cB AG |
[V:3]FG ^DE |
[V:4]z4 |
[V:1]AG e2 |
[V:2]FE c2 |
[V:3]B,C z2 |
[V:4]z3 F,, |
[V:1]dc BA |
[V:2]BG2 C |
[V:3]zC DD |
[V:4]G,,E, D,F, |
[V:1]G/A/G/F/ GB |
[V:2]B,2 zD |
[V:3]D2 zB, |
[V:4]G,2 zG, |
[V:1]d/e/d/^c/ df |
[V:2]B,2 zc |
[V:3]G,2 zA |
[V:4]G,,2 zD, |
[V:1]g/a/g/f/ gb |
[V:2]B2 zD |
[V:3]B2 zG |
[V:4]G,,2 zG, |
[V:1]d'/e'/d'/^c'/ d'f' |
[V:2]B2 zc |
[V:3]G,2 z_E |
[V:4]G,,2 z2 |
[V:1]g'/a'/g'/f'/ g'f' |
[V:2]B2 zc |
[V:3]D3 _E |
[V:4]G,4 |
[V:1]g'/a'/g'/f'/ g'/a'/g'/f'/ |
[V:2]B/B/c/c/ B/B/c/c/ |
[V:3]D/D/_E/E/ D/D/E/E/ |
[V:4]G,,/G,/G,,/G,/ G,,/G,/G,,/G,/ |
[V:1]g'/a'/g'/f'/ g'/a'/g'/f'/ |
[V:2]B/B/c/c/ B/B/c/c/ |
[V:3]D/D/_E/E/ D/D/E/E/ |
[V:4]G,,/G,/G,,/G,/ G,,/G,/G,,/G,/ |
[V:1]g'2 b'2 |
[V:2]B2 [G,2D2B2] |
[V:3]D2 [D2B,2] |
[V:4]G,,2 G,,2 |
[V:1]G,2 z2 |]
[V:2][B2D2G,2] z2 |]
[V:3][D2B,2] z2 |]
[V:4]G,,2 z2 |]

